icon/lg/adobe-lightroom.svg

<?xml version="1.0" encoding="UTF-8"?>
<svg viewBox="0 0 256 250" version="1.1" xmlns="http://www.w3.org/2000/svg" preserveAspectRatio="xMidYMid" height="1em" width="1em">
  <g>
    <rect fill="#001E36" x="0" y="0" width="256" height="249.6" rx="42.5"/>
    <path d="M134.442667,176.408853 L66.7797333,176.408853 C65.6344178,176.408853 65.0620196,175.779164 65.0625387,174.519787 L65.0625387,65.4690133 C65.0017532,65.0432982 65.1449516,64.6138085 65.4490538,64.3097525 C65.753156,64.0056964 66.1826674,63.8625632 66.6083733,63.9234133 L87.5598933,63.9234133 C87.8908714,63.8767849 88.2245254,63.9883786 88.4608524,64.2247475 C88.6971793,64.4611164 88.8087138,64.7947902 88.7620267,65.12576 L88.7620267,154.77056 L138.049493,154.77056 C139.079701,154.77056 139.480395,155.28576 139.251573,156.31616 L136.160427,174.863296 C136.145706,175.376498 135.891477,175.853185 135.473493,176.151317 C135.154837,176.316817 134.801718,176.405038 134.442667,176.408853 Z M151.4432,91.0572907 L170.161952,91.0572907 C171.206319,91.0663662 172.117756,91.7675965 172.39424,92.7747413 C172.802785,93.5270449 173.092494,94.3380212 173.253088,95.1789013 C173.492824,96.2836907 173.664846,97.4020937 173.768192,98.5278613 C173.881216,99.729952 173.93851,101.017888 173.940075,102.391669 C177.150353,98.6538489 181.021722,95.53938 185.360384,93.2041707 C190.234182,90.5689952 195.706226,89.2379479 201.245867,89.3401067 C201.671515,89.2793186 202.100942,89.4224935 202.404947,89.7265546 C202.708951,90.0306157 202.852046,90.4600694 202.791179,90.8857067 L202.791179,111.66544 C202.791179,112.467787 202.218784,112.868498 201.073995,112.867573 C194.156199,112.439585 187.236607,113.676319 180.895349,116.474091 C178.740239,117.406198 176.786433,118.747559 175.142219,120.423829 L175.142219,174.863413 C175.142219,175.893877 174.684231,176.409077 173.768256,176.409013 L152.988523,176.409013 C152.515474,176.476879 152.038099,176.317892 151.700203,175.979946 C151.362308,175.642 151.203392,175.164601 151.271328,174.691563 L151.271328,115.61536 C151.271328,114.176969 151.261975,112.691327 151.243269,111.158433 L151.208195,108.823654 C151.201181,108.428618 151.193581,108.030628 151.185397,107.629685 C151.141253,105.526565 151.081877,103.439067 151.007269,101.367191 L150.927584,99.3005227 C150.85164,96.9411611 150.622335,94.589236 150.24112,92.2596373 C150.153625,91.921362 150.251564,91.5620393 150.498611,91.314949 C150.714776,91.0987449 151.01689,90.9966857 151.31567,91.0331239 L151.4432,91.0572907 Z" fill="#31A8FF"/>
  </g>
</svg>

<svg width="256" height="250" xmlns="http://www.w3.org/2000/svg" preserveAspectRatio="xMidYMid"><rect fill="#001E36" width="256" height="249.6" rx="42.5"/><path d="M134.443 176.409H66.78c-1.146 0-1.718-.63-1.717-1.89V65.47a1.366 1.366 0 0 1 1.545-1.546H87.56a1.064 1.064 0 0 1 1.202 1.203v89.645h49.287c1.03 0 1.431.515 1.203 1.545l-3.092 18.547a1.64 1.64 0 0 1-.687 1.288 2.29 2.29 0 0 1-1.03.258Zm17-85.352h18.719c1.044.01 1.956.71 2.232 1.718a8.3 8.3 0 0 1 .86 2.404c.239 1.105.41 2.223.514 3.349.113 1.202.17 2.49.172 3.864a40.118 40.118 0 0 1 11.42-9.188 32.153 32.153 0 0 1 15.886-3.864 1.366 1.366 0 0 1 1.545 1.546v20.78c0 .802-.572 1.202-1.717 1.202a43.357 43.357 0 0 0-20.179 3.606 18.153 18.153 0 0 0-5.753 3.95v54.44c0 1.03-.458 1.545-1.374 1.545h-20.78a1.517 1.517 0 0 1-1.717-1.717v-59.077c0-1.438-.009-2.924-.028-4.457l-.035-2.334c-.007-.395-.014-.793-.023-1.194a417.47 417.47 0 0 0-.178-6.263l-.08-2.066a54.445 54.445 0 0 0-.686-7.041.987.987 0 0 1 1.075-1.227l.127.024Z" fill="#31A8FF"/></svg>
